icons/audacy.svg

<svg width="32" height="32" viewBox="0 0 32 32" fill="none" xmlns="http://www.w3.org/2000/svg">
<g clip-path="url(#clip0_29_94)">
<path d="M3.36627 28.6337C0.910867 26.1783 0 22.1783 0 16C0 9.82167 0.910867 5.82167 3.36627 3.36627C5.82167 0.910867 9.82167 0 16 0C22.1783 0 26.1783 0.910867 28.6337 3.36627C31.0891 5.82167 32 9.82167 32 16C32 22.1783 31.0891 26.1783 28.6337 28.6337C26.1783 31.0891 22.1783 32 16 32C9.82167 32 5.82167 31.0891 3.36627 28.6337Z" fill="#FE5000"/>
<path d="M15.1822 19.8623C15.1822 22.9756 12.6532 25.4998 9.53378 25.4998C6.41503 25.4998 3.88535 22.9756 3.88535 19.8623C3.88535 16.749 6.41433 14.2255 9.53378 14.2255C12.6532 14.2255 15.1822 16.749 15.1822 19.8623ZM17.9232 6.5H9.86101L20.051 25.5H28.1146L17.9237 6.5H17.9232Z" fill="white"/>
</g>
<defs>
<clipPath id="clip0_29_94">
<rect width="32" height="32" fill="white"/>
</clipPath>
</defs>
</svg>

<svg xmlns="http://www.w3.org/2000/svg" width="32" height="32" fill="none" viewBox="0 0 32 32">
  <g clip-path="url(#a)">
    <path fill="#FE5000" d="M3.366 28.634C.911 26.178 0 22.178 0 16S.91 5.822 3.366 3.366C5.822.911 9.822 0 16 0s10.178.91 12.634 3.366C31.089 5.822 32 9.822 32 16s-.91 10.178-3.366 12.634C26.178 31.089 22.178 32 16 32s-10.178-.91-12.634-3.366Z"/>
    <path fill="#fff" d="M15.182 19.862A5.643 5.643 0 0 1 9.534 25.5a5.644 5.644 0 0 1-5.649-5.638 5.643 5.643 0 0 1 5.649-5.636 5.643 5.643 0 0 1 5.648 5.636ZM17.923 6.5H9.861l10.19 19h8.064l-10.191-19Z"/>
  </g>
  <defs>
    <clipPath id="a">
      <path fill="#fff" d="M0 0h32v32H0z"/>
    </clipPath>
  </defs>
</svg>
